Obsidian-SemiLight/actions/16s/amarok_cart_view.svg

<svg viewBox="0 0 16 16" xmlns="http://www.w3.org/2000/svg"><path d="m8 2a3 3 0 0 0 -3 3h-3v1 7 1h12v-1-7-1h-3a3 3 0 0 0 -3-3zm0 1a2 2 0 0 1 2 2h-4a2 2 0 0 1 2-2zm-5 3h2v1.0878906a1.5 1.5 0 0 0 -1 1.4121094 1.5 1.5 0 0 0 1.5 1.5 1.5 1.5 0 0 0 1.5-1.5 1.5 1.5 0 0 0 -1-1.4121094v-1.0878906h4v1.0878906a1.5 1.5 0 0 0 -1 1.4121094 1.5 1.5 0 0 0 1.5 1.5 1.5 1.5 0 0 0 1.5-1.5 1.5 1.5 0 0 0 -1-1.4121094v-1.0878906h2v7h-10zm2.5 2a.5.5 0 0 1 .5.5.5.5 0 0 1 -.5.5.5.5 0 0 1 -.5-.5.5.5 0 0 1 .5-.5zm5 0a.5.5 0 0 1 .5.5.5.5 0 0 1 -.5.5.5.5 0 0 1 -.5-.5.5.5 0 0 1 .5-.5z" fill="#4d4d4d"/></svg>

<svg xmlns="http://www.w3.org/2000/svg" viewBox="0 0 16 16">
  <defs id="defs3051">
    <style type="text/css" id="current-color-scheme">
      .ColorScheme-Text {
        color:#4d4d4d;
      }
      </style>
  </defs>
 <path style="fill:currentColor;fill-opacity:1;stroke:none" 
     d="M 8 2 A 3 3 0 0 0 5 5 L 2 5 L 2 6 L 2 13 L 2 14 L 14 14 L 14 13 L 14 6 L 14 5 L 11 5 A 3 3 0 0 0 8 2 z M 8 3 A 2 2 0 0 1 10 5 L 6 5 A 2 2 0 0 1 8 3 z M 3 6 L 5 6 L 5 7.0878906 A 1.5 1.5 0 0 0 4 8.5 A 1.5 1.5 0 0 0 5.5 10 A 1.5 1.5 0 0 0 7 8.5 A 1.5 1.5 0 0 0 6 7.0878906 L 6 6 L 10 6 L 10 7.0878906 A 1.5 1.5 0 0 0 9 8.5 A 1.5 1.5 0 0 0 10.5 10 A 1.5 1.5 0 0 0 12 8.5 A 1.5 1.5 0 0 0 11 7.0878906 L 11 6 L 13 6 L 13 13 L 3 13 L 3 6 z M 5.5 8 A 0.5 0.5 0 0 1 6 8.5 A 0.5 0.5 0 0 1 5.5 9 A 0.5 0.5 0 0 1 5 8.5 A 0.5 0.5 0 0 1 5.5 8 z M 10.5 8 A 0.5 0.5 0 0 1 11 8.5 A 0.5 0.5 0 0 1 10.5 9 A 0.5 0.5 0 0 1 10 8.5 A 0.5 0.5 0 0 1 10.5 8 z "
     class="ColorScheme-Text"
     />
</svg>
